!!!OTL: 1589. Strassenraeuber-Lied.
!!!ARE: Europa, Mitteleuropa, Deutschland, Hessen, Giessen; Marburg
!!!SCT: E1589
!!!TXL: @@DE
!!!YEM: Copyright 1995, estate of Helmut Schaffrath.
**kern	**text
*ICvox	*
!! Mixed meters:  4/4; 3/4; 4/4
*M4/4	*
*met(c)	*
*k[f#]	*
*G:	*
=1	=1
!LO:TX:a:t=Aus der Umgegend von Gießen u. Marburg.	!
{4d	Es
4g	giebt
4g	doch
4b	kein
=2	=2
4b	ſchö-
8aL	-ner
8gJ	.
4a	Le-
4a}	-ben
=3	=3
{4.b	in
8cc	der
8ddL	gan-
8eeJ	.
8ddL	-ʒen
8ccJ	.
=4	=4
4b	wei-
4a	-ten
4g	Welt,
4r}	.
=5	=5
{4d	Als
4g	das
4g	Stra-
4b	-ßen-
=6	=6
4b	-räu-
8aL	-ber-
8gJ	.
4a	-le-
4a}	-ben,
=7	=7
{4.b	mor-
8cc	-den
8ddL	um
8eeJ	.
8ddL	das
8ccJ	.
=8	=8
4b	lie-
4a	-be
4g	Geld!
4r}	.
=9	=9
*M3/4	*
{8g	Jn
8b	den
4dd	Wäl-
4b	-dern
=10	=10
8a	um-
8b	-ʒu-
8ccL	-ſtrei-
8bJ	.
4a}	-chen,
=11	=11
{8g	gro-
8b	-ße
4dd	Leu-
4b	-te
=12	=12
8a	ʒu
8b	er-
8ccL	-rei-
8bJ	.
4a}	-chen;
=13	=13
*M4/4	*
*met(c)	*
{4d	fehlt
4g	es
4g	uns
4b	an
=14	=14
4b	Geld
8aL	o-
8gJ	-der
4a	Kleid,
4r}	.
=15	=15
{4.b	brin-
8cc	-gens
8ddL	uns
8eeJ	.
8ddL	die
8ccJ	.
=16	=16
4b	Wan-
4a	-ders-
4g	-leut.
4r}	.
==	==
!!!AGN: Staende - Lied, Strassen - Raeuber
!!!ONB: ESAC (Essen Associative Code) Database: ERK3
!!!AMT: irregular
!!!AIN: vox
!!!EED: Helmut Schaffrath
!!!EEV: 1.0
!!!GTL: Staendelieder (Berufslieder). 7. Auf andere Beschaeftigungen im Freien [Fuhrleute, Postillons, Nachtwaechter, Bettler, Gauner und Strassenraeuber].
!!!URL-scan: https://rosdok.uni-rostock.de/mcrviewer/recordIdentifier/rosdok_ppn745177999/iview2/phys_0419.iview2?x=-2.183608997567262&y=1787.1994584561326&scale=0.6468447934588498&rotation=0&layout=singlePageLayout
!!!ENC: Anna Maria Matuszewska
!!!EEV: 2025/08/01
*-	*-
